<?xml version="1.0" encoding="UTF-8"?>
<map version="1.10" tiledversion="1.12.2" orientation="isometric" renderorder="right-down" width="25" height="25" tilewidth="64" tileheight="32" infinite="0" nextlayerid="10" nextobjectid="145">
 <properties>
  <property name="Background" value="custom"/>
  <property name="Background Animation" value="/server/assets/bg/07a-centralarea.animation"/>
  <property name="Background Texture" value="/server/assets/bg/07a-centralarea.png"/>
  <property name="Forced Base HP" type="int" value="300"/>
  <property name="Full Heal" type="bool" value="true"/>
  <property name="Honor HPMem" type="bool" value="true"/>
  <property name="Name" value="CL_Net"/>
  <property name="Song" value="/server/assets/exe5-indoors.ogg"/>
 </properties>
 <tileset firstgid="1" source="../assets/rainbow_floor.tsx"/>
 <tileset firstgid="17" source="../assets/home_warp.tsx"/>
 <tileset firstgid="22" source="../assets/coffee.tsx"/>
 <tileset firstgid="26" source="../assets/vendor_desk.tsx"/>
 <tileset firstgid="30" source="../assets/BBS.tsx"/>
 <tileset firstgid="31" source="../assets/central_platform.tsx"/>
 <tileset firstgid="271" source="../assets/EXE6_Shortcuts.tsx"/>
 <tileset firstgid="303" source="../assets/bn6_securitycube.tsx"/>
 <tileset firstgid="317" source="../assets/bn6_pc_tile.tsx"/>
 <tileset firstgid="327" source="../assets/stairs.tsx"/>
 <tileset firstgid="330" source="../assets/Custom_Central_Tiles.tsx"/>
 <tileset firstgid="338" source="../assets/DenTownStairs.tsx"/>
 <tileset firstgid="347" source="../assets/ezlibs-assets/ezusers/admin-console.tsx"/>
 <tileset firstgid="348" source="../assets/indy-trains/platforms.tsx"/>
 <tileset firstgid="352" source="../assets/indy-trains/Cyber_Rail_offset.tsx"/>
 <tileset firstgid="353" source="../assets/SDoor.tsx"/>
 <tileset firstgid="383" source="../assets/central_arrows.tsx"/>
 <tileset firstgid="387" source="../assets/Bus Stop.tsx"/>
 <tileset firstgid="388" source="../assets/bn6_cube_gray.tsx"/>
 <tileset firstgid="402" source="../assets/ezlibs-assets/ezcheckpoints/bn6_cube_gray.tsx"/>
 <tileset firstgid="416" source="../assets/gate.tsx"/>
 <tileset firstgid="421" source="../assets/Roadblock.tsx"/>
 <tileset firstgid="423" source="../assets/ezlibs-assets/ezmystery/BlueMysteryData.tsx"/>
 <tileset firstgid="431" source="../assets/ezlibs-assets/ezcheckpoints/bn5cubegreen_tile.tsx"/>
 <tileset firstgid="435" source="../assets/warp.tsx"/>
 <tileset firstgid="441" source="../assets/EXE6_boss_markers.tsx"/>
 <tileset firstgid="449" source="../assets/CentralCounter.tsx"/>
 <tileset firstgid="451" source="../assets/FakeHeelNavi.tsx"/>
 <tileset firstgid="452" source="../assets/Blank.tsx"/>
 <layer id="1" name="Ground" width="25" height="25">
  <data encoding="csv">
352,352,352,352,352,352,352,352,352,352,352,352,352,352,352,352,352,352,352,352,352,352,352,352,0,
0,0,0,0,0,0,0,0,0,0,0,0,0,0,0,0,0,0,0,0,0,0,0,0,0,
0,0,0,0,0,0,0,0,0,0,0,0,0,0,0,0,0,0,0,0,0,0,0,0,0,
0,0,0,0,0,0,0,0,0,0,0,0,0,0,0,0,0,0,0,0,0,0,0,0,0,
0,0,0,0,0,0,0,0,0,0,0,0,0,0,0,0,0,0,0,0,0,0,0,0,0,
0,0,0,0,0,0,0,0,338,142,0,0,0,0,0,0,0,0,0,0,0,0,0,0,0,
0,0,0,0,0,0,0,0,331,82,330,0,0,0,0,0,0,0,0,0,0,0,0,0,0,
0,0,0,0,0,0,0,0,330,335,331,0,0,0,0,0,0,0,0,0,0,0,0,0,0,
0,0,212,213,223,0,0,330,331,334,330,331,0,0,152,153,163,0,0,0,0,0,0,0,0,
0,0,211,222,233,243,261,330,331,334,331,331,201,191,151,162,173,0,0,0,0,0,0,0,0,
0,0,221,231,232,0,0,331,330,335,331,330,0,0,161,171,172,0,0,0,0,0,0,0,0,
0,0,0,0,0,0,0,0,330,334,330,0,0,0,0,0,0,0,0,0,0,0,0,0,0,
0,0,0,0,0,0,0,344,331,82,330,81,59,35,82,54,69,35,0,0,0,0,0,0,0,
0,0,0,0,0,0,0,0,0,72,0,0,0,0,72,0,0,0,0,0,0,0,0,0,0,
0,0,0,0,0,0,0,0,32,33,43,0,0,32,33,43,0,0,0,0,0,0,0,0,0,
0,0,0,0,0,0,0,0,31,42,53,0,0,31,42,53,0,0,0,0,0,0,0,0,0,
0,0,0,0,0,0,0,0,41,51,52,0,0,41,51,52,0,0,0,0,0,0,0,0,0,
0,0,0,0,0,0,0,0,0,0,0,0,0,0,0,0,0,0,0,0,0,0,0,0,0,
0,0,0,0,0,0,0,0,0,0,0,0,0,0,0,0,0,0,0,0,0,0,0,0,0,
0,0,0,0,0,0,0,0,0,0,0,0,0,0,0,0,0,0,0,0,0,0,0,0,0,
0,0,0,0,0,0,0,0,0,0,0,0,0,0,0,0,0,0,0,0,0,0,0,0,0,
0,0,0,0,0,0,0,0,0,0,0,0,0,0,0,0,0,0,0,0,0,0,0,0,0,
0,0,0,0,0,0,0,0,0,0,0,0,0,0,0,0,0,0,0,0,0,0,0,0,0,
0,0,0,0,0,0,0,0,0,0,0,0,0,0,0,0,0,0,0,0,0,0,0,0,0,
0,0,0,0,0,0,0,0,0,0,0,0,0,0,0,0,0,0,0,0,0,0,0,0,0
</data>
 </layer>
 <objectgroup id="2" name="Ground">
  <object id="1" type="Home Warp" gid="17" x="288" y="480" width="60" height="32"/>
  <object id="11" name="To SeaBBS" type="Radius Warp" gid="271" x="480" y="288" width="64" height="40">
   <properties>
    <property name="Activation Radius" type="float" value="0.8"/>
    <property name="Target Area" value="SeaBBS"/>
    <property name="Target Object" type="object" value="49"/>
    <property name="Warp Out" type="bool" value="true"/>
   </properties>
  </object>
  <object id="12" name="To ForestBBS" type="Radius Warp" gid="283" x="96" y="288" width="64" height="40">
   <properties>
    <property name="Activation Radius" type="float" value="1.5"/>
    <property name="Target Area" value="ForestBBS"/>
    <property name="Target Object" type="object" value="11"/>
    <property name="Warp Out" type="bool" value="true"/>
   </properties>
  </object>
  <object id="15" name="News" type="Board" gid="2147483678" x="192" y="208" width="40" height="53">
   <properties>
    <property name="BBS" type="bool" value="true"/>
    <property name="Color" type="color" value="#ffaaaaff"/>
    <property name="Name" value="Welcome Board"/>
    <property name="Post Limit" type="int" value="30"/>
    <property name="Postable" type="bool" value="true"/>
   </properties>
  </object>
  <object id="16" name="Welcome_Program" type="NPC" x="265" y="457">
   <properties>
    <property name="Asset Name" value="prog"/>
    <property name="Dialogue Type" value="random"/>
    <property name="Direction" value="Down Right"/>
    <property name="Text 1" value="Welcome to ONB.clewis.dad!"/>
    <property name="Text 2" value="Read our welcome BBS!"/>
    <property name="Text 3" value="Why am I screaming?!"/>
   </properties>
   <point/>
  </object>
  <object id="20" name="ReturnForest" x="160" y="288">
   <point/>
  </object>
  <object id="23" name="ReturnSea" x="384" y="288">
   <point/>
  </object>
  <object id="26" name="GMNavi" type="NPC" x="336" y="208">
   <properties>
    <property name="Asset Name" value="GMNavi"/>
    <property name="Dialogue Type" value="first"/>
    <property name="Direction" value="Down Left"/>
    <property name="Text 1" value="Your safety is our priotity."/>
   </properties>
   <point/>
  </object>
  <object id="31" name="GenericNPC_F" type="NPC" x="256" y="320">
   <properties>
    <property name="Asset Name" value="female-navi-exe6_pink"/>
    <property name="Dialogue Type" value="random"/>
    <property name="Direction" value="Down"/>
    <property name="Next Waypoint 1" type="object" value="37"/>
    <property name="Text 1" value="I can't decide where to go to chat."/>
    <property name="Text 2" value="Forest_ChatR is calm but SeaChatRm has fishing."/>
    <property name="Wait Time" type="int" value="2"/>
    <property name="Waypoint Type" value="first"/>
   </properties>
   <point/>
  </object>
  <object id="33" name="GenericNPC_M" type="NPC" x="336" y="320">
   <properties>
    <property name="Asset Name" value="male-navi-exe6_teal"/>
    <property name="Dialogue Type" value="random"/>
    <property name="Direction" value="Up Left"/>
    <property name="Next Waypoint 1" type="object" value="38"/>
    <property name="Text 1" value="I rode the train here!"/>
    <property name="Text 2" value="I think I'll go fishing in SeaChatRm."/>
    <property name="Wait Time" type="int" value="3"/>
    <property name="Waypoint Type" value="first"/>
   </properties>
   <point/>
  </object>
  <object id="37" name="Waypoint4" type="Waypoint" x="258.5" y="349.5">
   <properties>
    <property name="Direction" value="Down Left"/>
    <property name="Next Waypoint 1" type="object" value="39"/>
    <property name="Wait Time" type="int" value="6"/>
   </properties>
   <point/>
  </object>
  <object id="38" name="Waypoint1" type="Waypoint" x="336" y="384">
   <properties>
    <property name="Next Waypoint 1" type="object" value="40"/>
    <property name="Next Waypoint 2" type="object" value="41"/>
    <property name="Wait Time" type="int" value="5"/>
    <property name="Waypoint Type" value="random"/>
   </properties>
   <point/>
  </object>
  <object id="40" name="Waypoint2" type="Waypoint" x="336" y="256">
   <properties>
    <property name="Next Waypoint 1" type="object" value="38"/>
    <property name="Next Waypoint 2" type="object" value="41"/>
    <property name="Wait Time" type="int" value="5"/>
    <property name="Waypoint Type" value="random"/>
   </properties>
   <point/>
  </object>
  <object id="41" name="Waypoint3" type="Waypoint" x="336" y="304">
   <properties>
    <property name="Next Waypoint 1" type="object" value="42"/>
    <property name="Next Waypoint 2" type="object" value="40"/>
    <property name="Next Waypoint 3" type="object" value="38"/>
    <property name="Wait Time" type="int" value="3"/>
    <property name="Waypoint Type" value="random"/>
   </properties>
   <point/>
  </object>
  <object id="42" name="Waypoint4" type="Waypoint" x="368" y="304">
   <properties>
    <property name="Next Waypoint 1" type="object" value="41"/>
    <property name="Wait Time" type="int" value="6"/>
   </properties>
   <point/>
  </object>
  <object id="39" name="Waypoint3" type="Waypoint" x="256" y="272">
   <properties>
    <property name="Direction" value="Up Right"/>
    <property name="Next Waypoint 1" type="object" value="37"/>
    <property name="Wait Time" type="int" value="15"/>
   </properties>
   <point/>
  </object>
  <object id="71" type="Admin Console" gid="347" x="784" y="784" width="40" height="53"/>
  <object id="77" name="Nurse_NPC" type="NPC" x="432" y="496">
   <properties>
    <property name="Asset Name" value="Nurse Navi"/>
    <property name="Dialogue Type" value="random"/>
    <property name="Direction" value="Down Right"/>
    <property name="Text 1" value="I fix up navi that get themselves into trouble."/>
    <property name="Text 2" value="Try finding more HP Mems."/>
    <property name="Text 3" value="Maybe I'll try some virus cleanup too!"/>
   </properties>
   <point/>
  </object>
  <object id="80" type="Mystery Data" gid="423" x="560" y="400" width="14" height="43">
   <properties>
    <property name="Name" value="HPMem"/>
    <property name="Once" type="bool" value="true"/>
    <property name="Type" value="item"/>
   </properties>
  </object>
  <object id="138" gid="2147483674" x="435" y="487" width="35" height="45">
   <properties>
    <property name="Interact Relay" type="object" value="77"/>
   </properties>
  </object>
  <object id="139" gid="2147483676" x="429.5" y="522.5" width="35" height="45">
   <properties>
    <property name="Interact Relay" type="object" value="77"/>
   </properties>
  </object>
  <object id="140" gid="2147483675" x="434" y="506" width="35" height="45">
   <properties>
    <property name="Interact Relay" type="object" value="77"/>
   </properties>
  </object>
 </objectgroup>
 <layer id="4" name="Ground 2" width="25" height="25" offsetx="0" offsety="-16">
  <data encoding="csv">
0,0,0,0,0,0,0,0,0,0,0,0,0,0,0,0,0,0,0,0,0,0,0,0,0,
0,0,0,0,0,0,0,0,0,0,0,0,0,0,0,0,0,0,0,0,0,0,0,0,0,
0,0,0,0,0,0,0,0,0,0,0,0,0,0,0,0,0,0,0,0,0,0,0,0,0,
0,0,0,0,0,0,0,0,0,0,0,0,0,0,0,0,0,0,0,0,0,0,0,0,0,
0,0,0,0,0,0,0,0,0,0,0,0,0,0,0,0,0,0,0,0,0,0,0,0,0,
0,0,0,0,0,0,0,339,0,0,0,0,0,0,0,0,0,0,0,0,0,0,0,0,0,
0,0,0,0,0,0,0,0,0,0,0,0,0,0,0,0,0,0,0,0,0,0,0,0,0,
0,0,0,0,0,0,0,0,0,0,0,0,0,0,0,0,0,0,0,0,0,0,0,0,0,
0,0,0,0,0,0,0,0,0,0,0,0,0,0,0,0,0,0,0,0,0,0,0,0,0,
0,0,0,0,0,0,0,0,0,0,0,0,0,0,0,0,0,0,0,0,0,0,0,0,0,
0,0,0,0,0,0,0,0,0,0,0,0,0,0,0,0,0,0,0,0,0,0,0,0,0,
0,348,0,0,0,0,0,0,0,0,0,0,0,0,0,0,0,0,0,0,0,0,0,0,0,
79,59,69,82,59,35,81,346,0,0,0,0,0,0,0,0,0,0,0,0,0,0,0,0,0,
0,0,0,72,0,0,55,0,0,0,0,0,0,0,0,0,0,0,0,0,0,0,0,0,0,
0,32,33,33,43,0,58,0,0,0,0,0,0,0,0,0,0,0,0,0,0,0,0,0,0,
0,31,42,42,53,0,58,0,0,0,0,0,0,0,0,0,0,0,0,0,0,0,0,0,0,
0,31,42,42,53,0,68,0,0,0,0,0,0,0,0,0,0,0,0,0,0,0,0,0,0,
0,31,42,42,53,0,58,0,0,0,0,0,0,0,0,0,0,0,0,0,0,0,0,0,0,
0,31,42,42,53,0,68,0,0,0,0,0,0,0,0,0,0,0,0,0,0,0,0,0,0,
0,41,51,51,52,0,58,0,0,0,0,0,0,0,0,0,0,0,0,0,0,0,0,0,0,
0,0,0,0,0,0,68,0,0,0,0,0,0,0,0,0,0,0,0,0,0,0,0,0,0,
0,0,0,0,0,0,68,0,0,0,0,0,0,0,0,0,0,0,0,0,0,0,0,0,0,
0,0,0,0,0,0,45,0,0,0,0,0,0,0,0,0,0,0,0,0,0,0,0,0,0,
0,0,0,0,0,0,78,0,0,0,0,0,0,0,0,0,0,0,0,0,0,0,0,0,0,
0,0,0,0,0,0,385,0,0,0,0,0,0,0,0,0,0,0,0,0,0,0,0,0,0
</data>
 </layer>
 <objectgroup id="5" name="Ground 2" offsetx="0" offsety="-16">
  <object id="53" gid="383" x="-40" y="360" width="96" height="64"/>
  <object id="61" name="T/F ForestBBS Sky" type="Radius Warp" x="8" y="400">
   <properties>
    <property name="Activation Radius" type="float" value="0.5"/>
    <property name="Arrival Animation" value="arrow_up_left_in"/>
    <property name="Leave Animation" value="arrow_up_left_out"/>
    <property name="Target Area" value="ForestBBS"/>
    <property name="Target Object" type="object" value="27"/>
   </properties>
   <point/>
  </object>
  <object id="144" name="T/F SubNet2" type="Radius Warp" x="208.5" y="743.5">
   <properties>
    <property name="Activation Radius" type="float" value="0.5"/>
    <property name="Arrival Animation" value="arrow_down_left_in"/>
    <property name="Leave Animation" value="arrow_down_left_out"/>
    <property name="Target Area" value="SubNet2"/>
    <property name="Target Object" type="object" value="12"/>
   </properties>
   <point/>
  </object>
  <object id="68" name="GMNavi" type="NPC" x="136" y="616">
   <properties>
    <property name="Asset Name" value="GMNavi"/>
    <property name="Dialogue Type" value="first"/>
    <property name="Direction" value="Up Right"/>
    <property name="Text 1" value="Your safety is our priotity."/>
   </properties>
   <point/>
  </object>
  <object id="88" name="GMNavi" type="NPC" x="56" y="376">
   <properties>
    <property name="Asset Name" value="GMNavi"/>
    <property name="Dialogue Type" value="first"/>
    <property name="Direction" value="Down Left"/>
    <property name="Next 1" type="object" value="101"/>
    <property name="Text 1" value="Hello netizen."/>
   </properties>
   <point/>
  </object>
  <object id="73" type="Checkpoint" gid="402" x="208" y="688" width="48" height="52">
   <properties>
    <property name="Description" value="It's a security cube."/>
    <property name="Key Name" value="Lvl2_Key"/>
    <property name="Once" type="bool" value="true"/>
    <property name="Required Keys" type="int" value="1"/>
    <property name="Unlock Failed Message" value="No entry."/>
    <property name="Unlock Message" value="Cube disabled."/>
   </properties>
  </object>
  <object id="83" name="InfoNPC" type="NPC" x="65" y="511">
   <properties>
    <property name="Asset Name" value="male-navi-exe4_pink"/>
    <property name="Dialogue Type" value="first"/>
    <property name="Direction" value="Down Right"/>
    <property name="Next 1" type="object" value="111"/>
    <property name="Text 1" value="Welcome to CL_Net. Which area would you like information on?"/>
   </properties>
   <point/>
  </object>
  <object id="84" name="ShopNPC" type="NPC" x="64" y="574">
   <properties>
    <property name="Asset Name" value="normal-navi-bn4_brown"/>
    <property name="Dialogue Type" value="first"/>
    <property name="Direction" value="Down Right"/>
    <property name="Next 1" type="object" value="117"/>
    <property name="Text 1" value="I have the best prices on CL_Net!"/>
   </properties>
   <point/>
  </object>
  <object id="85" gid="22" x="45.5" y="628.5" width="33" height="54"/>
  <object id="93" name="HasJob" type="Dialogue" x="32" y="296">
   <properties>
    <property name="Delete" type="int" value="109"/>
    <property name="Dialogue Type" value="first"/>
    <property name="Event Name" value="remove_object"/>
    <property name="Next 1" type="object" value="106"/>
   </properties>
   <point/>
  </object>
  <object id="106" name="HasJob" type="Dialogue" x="32" y="272">
   <properties>
    <property name="Dialogue Type" value="first"/>
    <property name="Next 1" type="object" value="99"/>
    <property name="Text 1" value="Please proceed to CL_SubNet1 and clean up all the junk data."/>
   </properties>
   <point/>
  </object>
  <object id="94" name="JobPending" type="Dialogue" x="32" y="320">
   <properties>
    <property name="Dialogue Type" value="first"/>
    <property name="Text 1" value="Go on and clean up that mess."/>
   </properties>
   <point/>
  </object>
  <object id="98" name="Complete" type="Dialogue" x="48" y="320">
   <properties>
    <property name="Dialogue Type" value="first"/>
    <property name="Next 1" type="object" value="107"/>
    <property name="Text 1" value="Thank you for getting that mess sorted out."/>
   </properties>
   <point/>
  </object>
  <object id="108" name="Complete" type="Dialogue" x="64" y="352">
   <properties>
    <property name="Dialogue Type" value="first"/>
    <property name="Text 1" value="Thank you for getting that mess sorted out."/>
   </properties>
   <point/>
  </object>
  <object id="99" name="QuestAdv" type="Dialogue" x="32" y="248">
   <properties>
    <property name="Dialogue Type" value="quest_event"/>
    <property name="Event Value" value="accepted"/>
    <property name="Quest Name" value="Clean Junk"/>
   </properties>
   <point/>
  </object>
  <object id="100" name="QuestCompleteReward" type="Dialogue" x="64" y="320">
   <properties>
    <property name="Dialogue Type" value="item"/>
    <property name="Item 1" type="object" value="104"/>
   </properties>
   <point/>
  </object>
  <object id="101" name="JobAccept" type="Dialogue" x="32" y="352">
   <properties>
    <property name="Dialogue Type" value="quest_switch"/>
    <property name="Quest Name" value="Clean Junk"/>
    <property name="accepted" type="object" value="94"/>
    <property name="cleaned" type="object" value="98"/>
    <property name="rewarded" type="object" value="108"/>
    <property name="unaccepted" type="object" value="105"/>
   </properties>
   <point/>
  </object>
  <object id="102" name="JobReject" type="Dialogue" x="0" y="288">
   <properties>
    <property name="Dialogue Type" value="first"/>
    <property name="Text 1" value="Very well. Be on your way."/>
   </properties>
   <point/>
  </object>
  <object id="103" name="OfferJob" type="Dialogue" x="0" y="320">
   <properties>
    <property name="Dialogue Type" value="question"/>
    <property name="Next 1" type="object" value="93"/>
    <property name="Next 2" type="object" value="102"/>
    <property name="Text 1" value="Would you help us clear it out?"/>
   </properties>
   <point/>
  </object>
  <object id="104" name="HPMem" type="Item" x="64" y="296">
   <properties>
    <property name="Amount" type="int" value="1"/>
    <property name="Description" value="Gives you +20 HP"/>
    <property name="Name" value="HPMem"/>
    <property name="Type" value="item"/>
   </properties>
   <point/>
  </object>
  <object id="105" name="Details" type="Dialogue" x="0" y="336">
   <properties>
    <property name="Dialogue Type" value="first"/>
    <property name="Next 1" type="object" value="103"/>
    <property name="Text 1" value="The area ahead is closed due to a build up of junk data."/>
   </properties>
   <point/>
  </object>
  <object id="107" name="Reset" type="Dialogue" x="48" y="296">
   <properties>
    <property name="Dialogue Type" value="quest_event"/>
    <property name="Event Value" value="rewarded"/>
    <property name="Next 1" type="object" value="100"/>
    <property name="Quest Name" value="Clean Junk"/>
   </properties>
   <point/>
  </object>
  <object id="109" name="QuestBlocker" gid="2147484069" x="32" y="400" width="64" height="64">
   <properties>
    <property name="Interact Relay" type="object" value="88"/>
   </properties>
  </object>
  <object id="111" name="List areas" type="Dialogue" x="40" y="504">
   <properties>
    <property name="Dialogue Type" value="quiz"/>
    <property name="Next 1" type="object" value="112"/>
    <property name="Next 2" type="object" value="114"/>
    <property name="Next 3" type="object" value="113"/>
    <property name="Text 1" value="SeaChatRm"/>
    <property name="Text 2" value="Forest_ChatR"/>
    <property name="Text 3" value="CL_SubNet1"/>
   </properties>
   <point/>
  </object>
  <object id="112" name="SeaChRm" type="Dialogue" x="16" y="512">
   <properties>
    <property name="Dialogue Type" value="first"/>
    <property name="Text 1">This area has an open BBS and Fishing. 
Be careful.
Viruses occationally pop onto the deck.</property>
   </properties>
   <point/>
  </object>
  <object id="113" name="CL_SubNet1" type="Dialogue" x="16" y="480">
   <properties>
    <property name="Dialogue Type" value="quest_switch"/>
    <property name="Quest Name" value="Clean Junk"/>
    <property name="accepted" type="object" value="115"/>
    <property name="cleaned" type="object" value="116"/>
    <property name="rewarded" type="object" value="116"/>
    <property name="unaccepted" type="object" value="115"/>
   </properties>
   <point/>
  </object>
  <object id="114" name="Forest_ChatR" type="Dialogue" x="16" y="496">
   <properties>
    <property name="Dialogue Type" value="first"/>
    <property name="Text 1" value="This area offers an open BBS."/>
   </properties>
   <point/>
  </object>
  <object id="115" name="CL_SubNet1_Pending" type="Dialogue" x="-16" y="472">
   <properties>
    <property name="Dialogue Type" value="first"/>
    <property name="Text 1">This area is currently closed due to a Junk data overflow.
The security navi stationed at the entrance may have more info.</property>
   </properties>
   <point/>
  </object>
  <object id="116" name="CL_SubNet1_Done" type="Dialogue" x="-16" y="456">
   <properties>
    <property name="Dialogue Type" value="first"/>
    <property name="Text 1">Be careful in this area.
There's no security to keep viruses under control.</property>
   </properties>
   <point/>
  </object>
  <object id="117" name="Shop" type="Dialogue" x="8" y="560">
   <properties>
    <property name="Dialogue Type" value="shop"/>
    <property name="Item 1" type="object" value="120"/>
    <property name="Item 2" type="object" value="119"/>
    <property name="Next 1" type="object" value="121"/>
   </properties>
   <point/>
  </object>
  <object id="119" name="Btl_Pass" type="Item" x="-56" y="544">
   <properties>
    <property name="Description" value="Looking for a challenge?"/>
    <property name="Name" value="Btl_Pass"/>
    <property name="Once" type="bool" value="true"/>
    <property name="Price" type="int" value="5000"/>
    <property name="Type" value="item"/>
   </properties>
   <point/>
  </object>
  <object id="120" name="Unlocker" type="Item" x="-56" y="560">
   <properties>
    <property name="Description" value="Unlocks Purple Data."/>
    <property name="Name" value="Unlocker"/>
    <property name="Price" type="int" value="10000"/>
    <property name="Type" value="item"/>
   </properties>
   <point/>
  </object>
  <object id="121" name="AfterShop" type="Dialogue" x="0" y="576">
   <properties>
    <property name="Dialogue Type" value="first"/>
    <property name="Text 1" value="Please come again!"/>
   </properties>
   <point/>
  </object>
  <object id="134" gid="2147484097" x="63" y="511" width="32" height="32">
   <properties>
    <property name="Interact Relay" type="object" value="83"/>
   </properties>
  </object>
  <object id="135" gid="2147484098" x="58.5" y="525.5" width="32" height="32">
   <properties>
    <property name="Interact Relay" type="object" value="83"/>
   </properties>
  </object>
  <object id="136" gid="2147484098" x="58.5" y="589.5" width="32" height="32">
   <properties>
    <property name="Interact Relay" type="object" value="84"/>
   </properties>
  </object>
  <object id="137" gid="2147484097" x="63" y="575" width="32" height="32">
   <properties>
    <property name="Interact Relay" type="object" value="84"/>
   </properties>
  </object>
 </objectgroup>
 <layer id="8" name="Ground 3" width="25" height="25" offsetx="0" offsety="-32">
  <data encoding="csv">
0,0,0,0,0,0,0,0,0,0,0,0,0,0,0,0,0,0,0,0,0,0,0,0,0,
352,0,0,0,0,0,0,0,0,0,0,0,0,0,0,0,0,0,0,0,0,0,0,0,352,
0,0,0,0,0,0,0,0,348,349,0,0,0,0,0,0,0,0,0,0,0,0,0,0,0,
0,0,0,0,0,0,92,93,93,93,93,93,93,103,0,0,0,0,0,0,0,0,0,0,0,
0,0,0,0,0,0,101,111,111,111,111,111,111,112,0,0,0,0,0,0,0,0,0,0,0,
0,0,0,0,0,0,141,340,0,0,0,0,0,0,0,0,0,0,0,0,0,0,0,0,0,
0,0,0,0,0,0,0,0,0,0,0,0,0,0,0,0,0,0,0,0,0,0,0,0,0,
0,0,0,0,0,0,0,0,0,0,0,0,0,0,0,0,0,0,0,0,0,0,0,0,0,
0,0,0,0,0,0,0,0,0,0,0,0,0,0,0,0,0,0,0,0,0,0,0,0,0,
0,0,0,0,0,0,0,0,0,0,0,0,0,0,0,0,0,0,0,0,0,0,0,0,0,
0,0,0,0,0,0,0,0,0,0,0,0,0,0,0,0,0,0,0,0,0,0,0,0,0,
0,0,0,0,0,0,0,0,0,0,0,0,0,0,0,0,0,0,0,0,0,0,0,0,0,
0,0,0,0,0,0,0,0,0,0,0,0,0,0,0,0,0,0,0,0,0,0,0,0,0,
0,0,0,0,0,0,0,0,0,0,0,0,0,0,0,0,0,0,0,0,0,0,0,0,0,
0,0,0,0,0,0,0,0,0,0,0,0,0,0,0,0,0,0,0,0,0,0,0,0,0,
0,0,0,0,0,0,0,0,0,0,0,0,0,0,0,0,0,0,0,0,0,0,0,0,0,
0,0,0,0,0,0,0,0,0,0,0,0,0,0,0,0,0,0,0,0,0,0,0,0,0,
0,0,0,0,0,0,0,0,0,0,0,0,0,0,0,0,0,0,0,0,0,0,0,0,0,
0,0,0,0,0,0,0,0,0,0,0,0,0,0,0,0,0,0,0,0,0,0,0,0,0,
0,0,0,0,0,0,0,0,0,0,0,0,0,0,0,0,0,0,0,0,0,0,0,0,0,
0,0,0,0,0,0,0,0,0,0,0,0,0,0,0,0,0,0,0,0,0,0,0,0,0,
0,0,0,0,0,0,0,0,0,0,0,0,0,0,0,0,0,0,0,0,0,0,0,0,0,
0,0,0,0,0,0,0,0,0,0,0,0,0,0,0,0,0,0,0,0,0,0,0,0,0,
0,0,0,0,0,0,0,0,0,0,0,0,0,0,0,0,0,0,0,0,0,0,0,0,0,
0,0,0,0,0,0,0,0,0,0,0,0,0,0,0,0,0,0,0,0,0,0,0,0,0
</data>
 </layer>
 <objectgroup id="9" name="Ground 3" offsetx="0" offsety="-32">
  <object id="29" name="CLTrain1" type="Passenger Train" x="192" y="56">
   <properties>
    <property name="Color" value="Orange"/>
    <property name="Direction" value="Down Right"/>
    <property name="End" value="24,1"/>
    <property name="Platform Z" value="2"/>
    <property name="Speed" value="1"/>
    <property name="Start" value="1,1"/>
    <property name="Stop" value="9,1"/>
    <property name="Train Z" value="1"/>
   </properties>
   <point/>
  </object>
  <object id="30" name="Jeb" type="Conductor" x="280" y="88">
   <properties>
    <property name="1 Area" value="64.23.226.84:8766,trainstation,WebBrowser"/>
    <property name="1 Name" value="WebBrowser"/>
    <property name="1 Type" value="Server"/>
    <property name="2 Area" value="138.197.119.219:1928,default,train"/>
    <property name="2 Name" value="The Block Server"/>
    <property name="2 Type" value="Server"/>
    <property name="3 Area" value="server.keristero.com:8769,default,MainTrain"/>
    <property name="3 Name" value="Gravy Yum Server"/>
    <property name="3 Type" value="Server"/>
    <property name="4 Area" value="64.23.226.84:3000,default,ShaDisHP"/>
    <property name="4 Name" value="WCity Online"/>
    <property name="4 Type" value="Server"/>
    <property name="5 Area" value="64.23.226.84:8000,default,train"/>
    <property name="5 Name" value="Quetzenn"/>
    <property name="5 Type" value="Server"/>
    <property name="Train" value="CLTrain1"/>
   </properties>
   <point/>
  </object>
  <object id="54" gid="387" x="264.455" y="100.818" width="16" height="53"/>
  <object id="67" name="GMNavi" type="NPC" x="432" y="112">
   <properties>
    <property name="Asset Name" value="GMNavi"/>
    <property name="Dialogue Type" value="first"/>
    <property name="Direction" value="Up Left"/>
    <property name="Text 1" value="Your safety is our priotity."/>
   </properties>
   <point/>
  </object>
 </objectgroup>
</map>
