<?xml version="1.0" encoding="UTF-8"?>
<map version="1.10" tiledversion="1.12.2" orientation="isometric" renderorder="right-down" width="25" height="25" tilewidth="64" tileheight="32" infinite="0" nextlayerid="7" nextobjectid="64">
 <properties>
  <property name="Background" value="custom"/>
  <property name="Background Animation" value="/server/assets/bg/07a-centralarea.animation"/>
  <property name="Background Texture" value="/server/assets/bg/07a-centralarea.png"/>
  <property name="Boss" type="int" value="38"/>
  <property name="Forced Base HP" type="int" value="300"/>
  <property name="Honor HPMem" type="bool" value="true"/>
  <property name="Mystery Data Maximum" type="int" value="5"/>
  <property name="Mystery Data Minimum" type="int" value="2"/>
  <property name="Name" value="CL_SubNet1"/>
  <property name="Song" value="/server/assets/exepon-internet.ogg"/>
 </properties>
 <tileset firstgid="1" source="../assets/central_platform.tsx"/>
 <tileset firstgid="241" source="../assets/central_arrows.tsx"/>
 <tileset firstgid="245" source="../assets/rainbow_floor.tsx"/>
 <tileset firstgid="261" source="../assets/Custom_Central_Tiles.tsx"/>
 <tileset firstgid="269" source="../assets/DenTownStairs.tsx"/>
 <tileset firstgid="278" source="../assets/EXE6_boss_markers.tsx"/>
 <tileset firstgid="286" source="../assets/gate.tsx"/>
 <tileset firstgid="291" source="../assets/warp.tsx"/>
 <tileset firstgid="297" source="../assets/ezlibs-assets/ezmystery/BlueMysteryData.tsx"/>
 <tileset firstgid="305" source="../assets/Junkpiles.tsx"/>
 <tileset firstgid="307" source="../assets/FakeHeelNavi.tsx"/>
 <tileset firstgid="308" source="../assets/ezlibs-assets/ezmystery/GreenMysteryData.tsx"/>
 <tileset firstgid="316" source="../assets/ezlibs-assets/ezmystery/PurpleMysteryData.tsx"/>
 <layer id="1" name="Ground 1" width="25" height="25">
  <data encoding="csv">
0,0,0,0,0,0,0,0,0,0,0,0,0,0,0,0,0,0,0,0,0,0,0,0,0,
0,2,3,13,0,0,0,0,0,0,0,0,0,2,3,13,0,0,0,0,0,0,0,0,0,
0,1,12,23,33,29,39,29,39,29,39,29,31,1,12,23,0,0,0,0,0,0,0,0,0,
0,11,21,22,0,0,0,0,0,0,0,0,0,11,21,22,0,0,0,0,0,0,0,0,0,
0,0,0,0,0,0,0,0,0,0,0,0,0,0,0,0,0,0,0,0,0,0,0,0,0,
0,0,0,0,0,0,0,0,0,0,0,0,0,0,0,0,0,0,0,0,0,0,0,0,0,
0,0,0,0,0,0,0,0,0,0,0,0,0,0,0,0,0,0,0,0,0,0,0,0,0,
0,0,0,0,0,0,0,0,0,0,0,0,0,0,0,0,0,0,0,0,0,0,0,0,0,
0,0,0,0,0,0,0,0,0,0,25,0,0,0,0,0,0,0,0,0,0,0,0,0,0,
0,266,266,265,0,0,0,0,0,0,28,0,0,0,0,0,0,0,0,0,0,0,0,0,0,
0,266,265,266,266,0,0,0,0,0,8,0,0,0,0,0,0,0,0,0,0,0,0,0,0,
0,266,266,266,266,51,49,29,39,9,35,0,0,0,0,0,0,0,0,0,0,0,0,0,0,
0,266,266,265,265,0,0,0,0,0,28,0,0,0,0,0,0,0,0,0,0,0,0,0,0,
0,265,266,266,0,0,0,0,0,0,38,0,0,0,265,265,265,0,0,0,0,0,0,0,0,
0,0,0,0,0,0,0,0,0,0,15,0,0,265,265,266,266,0,0,2,3,13,0,0,0,
0,0,0,0,0,0,0,0,0,0,51,29,51,265,266,265,51,49,31,1,12,23,33,29,5,
0,0,0,0,0,0,0,0,0,0,25,0,0,265,266,266,265,0,0,11,21,22,0,0,0,
0,265,265,2147483923,0,0,0,0,0,0,8,0,0,0,265,265,266,0,0,0,43,0,0,0,0,
0,266,266,265,266,0,0,0,0,0,8,0,0,0,0,0,0,0,0,0,38,0,0,0,0,
0,266,266,265,265,51,49,29,39,9,35,0,0,0,0,0,0,0,0,0,8,0,0,0,0,
0,266,265,265,265,0,0,0,0,0,48,0,0,0,0,0,0,0,0,0,26,19,9,27,0,
0,265,265,266,0,0,0,0,0,0,28,0,0,0,0,0,0,0,0,0,0,0,0,48,0,
0,0,0,0,0,0,0,0,0,0,14,0,0,0,0,0,0,0,0,0,0,0,0,38,0,
0,0,0,0,0,0,0,0,0,0,0,0,0,0,0,0,0,0,0,0,24,39,9,45,0,
0,0,0,0,0,0,0,0,0,0,0,0,0,0,0,0,0,0,0,0,0,0,0,0,0
</data>
 </layer>
 <objectgroup id="2" name="Ground 1">
  <object id="1" gid="244" x="760" y="456" width="96" height="64"/>
  <object id="5" name="T/FLevel2" type="Radius Warp" gid="292" x="448" y="64" width="61" height="32">
   <properties>
    <property name="Activation Radius" type="float" value="0.8"/>
    <property name="Target Area" value="Transport"/>
    <property name="Target Object" type="object" value="48"/>
    <property name="Warp Out" type="bool" value="true"/>
   </properties>
  </object>
  <object id="6" name="T/F ForestBBS" type="Radius Warp" x="792" y="496">
   <properties>
    <property name="Activation Radius" type="float" value="0.5"/>
    <property name="Arrival Animation" value="arrow_down_right_in"/>
    <property name="Leave Animation" value="arrow_down_right_out"/>
    <property name="Target Area" value="ForestBBS"/>
    <property name="Target Object" type="object" value="28"/>
   </properties>
   <point/>
  </object>
  <object id="7" name="StartWarp" x="664" y="504">
   <point/>
  </object>
  <object id="18" name="HP Mem" type="Mystery Data" gid="297" x="88" y="88" width="14" height="43">
   <properties>
    <property name="Name" value="HPMem"/>
    <property name="Once" type="bool" value="true"/>
    <property name="Type" value="item"/>
   </properties>
  </object>
  <object id="9" name="JunkPile" gid="305" x="192" y="624" width="64" height="64">
   <properties>
    <property name="Interact Relay" type="object" value="22"/>
   </properties>
  </object>
  <object id="12" name="JunkPile" gid="305" x="376" y="496" width="64" height="64">
   <properties>
    <property name="Interact Relay" type="object" value="22"/>
   </properties>
  </object>
  <object id="16" name="JunkPile" gid="305" x="592" y="496" width="64" height="64">
   <properties>
    <property name="Interact Relay" type="object" value="22"/>
   </properties>
  </object>
  <object id="19" name="Clean" type="Dialogue" x="560" y="752">
   <properties>
    <property name="Dialogue Type" value="first"/>
    <property name="Event Name" value="clean_junk"/>
    <property name="Next 1" type="object" value="25"/>
   </properties>
   <point/>
  </object>
  <object id="20" name="No Clean" type="Dialogue" x="560" y="768">
   <properties>
    <property name="Dialogue Type" value="first"/>
    <property name="Mugshot" value="player"/>
    <property name="Text 1" value="I'll leave the junk alone."/>
   </properties>
   <point/>
  </object>
  <object id="22" name="JunkHandler" type="NPC" x="544" y="752">
   <properties>
    <property name="Asset Name" value="Blank"/>
    <property name="Dialogue Type" value="question"/>
    <property name="Direction" value="Down"/>
    <property name="Mugshot" value="player"/>
    <property name="Next 1" type="object" value="19"/>
    <property name="Next 2" type="object" value="20"/>
    <property name="Text 1" value="Clean up the pile of junk?"/>
   </properties>
   <point/>
  </object>
  <object id="23" name="Junk" type="Item" x="592" y="752">
   <properties>
    <property name="Amount" type="int" value="1"/>
    <property name="Description" value="Junk you picked up"/>
    <property name="Name" value="Junk"/>
    <property name="Type" value="item"/>
   </properties>
   <point/>
  </object>
  <object id="25" name="GiveJunk" type="Dialogue" x="576" y="752">
   <properties>
    <property name="Dialogue Type" value="item"/>
    <property name="Dont Notify" type="bool" value="true"/>
    <property name="Item 1" type="object" value="23"/>
   </properties>
   <point/>
  </object>
  <object id="48" type="Mystery Datum" gid="308" x="120" y="376" width="14" height="43">
   <properties>
    <property name="Next 1" type="object" value="50"/>
    <property name="Type" value="random"/>
   </properties>
  </object>
  <object id="50" name="MysteryOptions" type="Mystery Option" x="8" y="248">
   <properties>
    <property name="Next 1" type="object" value="56"/>
    <property name="Next 2" type="object" value="57"/>
    <property name="Next 3" type="object" value="58"/>
    <property name="Type" value="random"/>
   </properties>
   <point/>
  </object>
  <object id="53" type="Mystery Datum" gid="308" x="336" y="720" width="14" height="43">
   <properties>
    <property name="Next 1" type="object" value="50"/>
    <property name="Type" value="random"/>
   </properties>
  </object>
  <object id="54" type="Mystery Datum" gid="308" x="336" y="272" width="14" height="43">
   <properties>
    <property name="Next 1" type="object" value="50"/>
    <property name="Type" value="random"/>
   </properties>
  </object>
  <object id="59" type="Mystery Datum" gid="316" x="656" y="752" width="14" height="43">
   <properties>
    <property name="Amount" type="int" value="1"/>
    <property name="Description" value="Grants access to Subnet 0"/>
    <property name="Locked" type="bool" value="true"/>
    <property name="Name" value="Lvl0_Key"/>
    <property name="Once" type="bool" value="true"/>
    <property name="Type" value="keyitem"/>
   </properties>
  </object>
  <object id="56" name="100" type="Mystery Option" x="-40" y="248">
   <properties>
    <property name="Amount" value="100"/>
    <property name="Type" value="money"/>
   </properties>
   <point/>
  </object>
  <object id="57" name="200" type="Mystery Option" x="-40" y="224">
   <properties>
    <property name="Amount" value="200"/>
    <property name="Type" value="money"/>
   </properties>
   <point/>
  </object>
  <object id="58" name="300" type="Mystery Option" x="-40" y="200">
   <properties>
    <property name="Amount" value="300"/>
    <property name="Type" value="money"/>
   </properties>
   <point/>
  </object>
  <object id="60" name="Return" x="424" y="72">
   <point/>
  </object>
 </objectgroup>
 <layer id="5" name="Ground 2" width="25" height="25" offsetx="0" offsety="-16">
  <data encoding="csv">
0,0,0,0,0,0,0,0,0,0,0,0,0,0,0,0,0,263,263,264,0,0,0,0,0,
0,0,0,0,0,0,0,0,0,0,0,0,0,0,0,0,0,264,263,263,0,0,0,0,0,
0,0,0,0,0,0,0,0,0,0,0,0,0,0,0,0,0,263,263,264,0,0,0,0,0,
0,0,0,0,0,0,0,0,0,0,0,0,0,0,0,0,0,0,263,0,0,0,0,0,0,
0,0,0,0,0,0,0,0,0,0,0,0,0,0,0,0,0,263,263,263,0,0,0,0,0,
0,0,0,0,0,0,0,0,0,0,0,0,0,0,0,0,0,264,263,263,0,0,0,0,0,
0,0,0,0,0,0,0,0,0,0,0,0,0,0,0,0,0,264,263,264,0,0,0,0,0,
0,0,0,0,0,0,0,0,0,0,0,0,0,0,0,0,0,0,264,0,0,0,0,0,0,
0,0,0,0,0,0,0,0,0,0,0,0,0,0,0,0,0,0,264,0,0,0,0,0,0,
0,0,0,0,0,0,0,0,0,0,0,0,0,0,0,0,0,263,263,264,0,0,0,0,0,
0,0,0,0,0,0,0,0,0,0,0,0,0,0,0,0,269,264,263,264,0,0,0,0,0,
0,0,0,0,0,0,0,0,0,0,0,0,0,0,0,0,0,264,264,263,0,0,0,0,0,
0,0,0,0,0,0,0,0,0,0,0,0,0,0,0,0,0,0,0,0,0,0,0,0,0,
0,0,0,0,0,0,0,0,0,0,0,0,0,0,0,0,0,0,0,0,0,0,0,0,0,
0,0,0,0,0,0,0,0,0,0,0,0,0,0,0,0,0,0,0,0,0,0,0,0,0,
0,0,0,0,0,0,0,0,0,0,0,0,0,0,0,0,0,0,0,0,0,0,0,0,0,
0,0,0,2147483924,0,0,0,0,0,0,0,0,0,0,0,0,0,0,0,0,0,0,0,0,0,
0,0,0,0,0,0,0,0,0,0,0,0,0,0,0,0,0,0,0,0,0,0,0,0,0,
0,0,0,0,0,0,0,0,0,0,0,0,0,0,0,0,0,0,0,0,0,0,0,0,0,
0,0,0,0,0,0,0,0,0,0,0,0,0,0,0,0,0,0,0,0,0,0,0,0,0,
0,0,0,0,0,0,0,0,0,0,0,0,0,0,0,0,0,0,0,0,0,0,0,0,0,
0,0,0,0,0,0,0,0,0,0,0,0,0,0,0,0,0,0,0,0,0,0,0,0,0,
0,0,0,0,0,0,0,0,0,0,0,0,0,0,0,0,0,0,0,0,0,0,0,0,0,
0,0,0,0,0,0,0,0,0,0,0,0,0,0,0,0,0,0,0,0,0,0,0,0,0,
0,0,0,0,0,0,0,0,0,0,0,0,0,0,0,0,0,0,0,0,0,0,0,0,0
</data>
 </layer>
 <objectgroup id="6" name="Ground 2" offsetx="0" offsety="-16">
  <object id="2" gid="2147483930" x="578" y="258" width="64" height="32"/>
  <object id="3" name="BossDoor" type="Checkpoint" gid="286" x="600" y="264" width="34" height="52">
   <properties>
    <property name="Consume" type="bool" value="true"/>
    <property name="Description" value="Checking progress..."/>
    <property name="Key Name" value="Junk"/>
    <property name="Once" type="bool" value="true"/>
    <property name="Required Keys" type="int" value="6"/>
    <property name="Unlock Failed Message" value="Still junk to clean."/>
    <property name="Unlock Message" value="Junk cleared."/>
   </properties>
  </object>
  <object id="4" name="ToStart" type="Radius Warp" gid="292" x="576" y="32" width="61" height="32">
   <properties>
    <property name="Activation Radius" type="float" value="0.8"/>
    <property name="Target Area" value="Dungeon1"/>
    <property name="Target Object" type="object" value="7"/>
    <property name="Warp Out" type="bool" value="true"/>
   </properties>
  </object>
  <object id="35" name="Level_2_Key" type="Mystery Data" gid="297" x="592" y="112" width="14" height="43">
   <properties>
    <property name="Description" value="Grants access to Subnet 2"/>
    <property name="Name" value="Lvl2_Key"/>
    <property name="Once" type="bool" value="true"/>
    <property name="Type" value="keyitem"/>
   </properties>
  </object>
  <object id="38" name="JunkHeel" type="NPC" x="680" y="184">
   <properties>
    <property name="Asset Name" value="Blank"/>
    <property name="Dialogue Type" value="first"/>
    <property name="Direction" value="Down Left"/>
    <property name="Dont Teleport" type="bool" value="true"/>
    <property name="Mugshot" value="heel-navi-exe4_purple"/>
    <property name="Next 1" type="object" value="42"/>
    <property name="Text 1" value="May we meet again. I will have tamed stronger viruses just for you."/>
   </properties>
   <point/>
  </object>
  <object id="39" name="JunkHeelFight" type="Radius Encounter" x="592" y="224">
   <properties>
    <property name="Name" value="Area Boss"/>
    <property name="Once" type="bool" value="true"/>
   </properties>
   <point/>
  </object>
  <object id="42" name="RunWarpEvent" type="Dialogue" x="752" y="184">
   <properties>
    <property name="Dialogue Type" value="none"/>
    <property name="Event Name" value="warp_npc"/>
   </properties>
   <point/>
  </object>
  <object id="44" name="FakeHeel" gid="2147483955" x="600" y="184" width="17" height="34">
   <properties>
    <property name="Interact Relay" type="object" value="38"/>
   </properties>
  </object>
  <object id="63" type="Mystery Datum" gid="308" x="624" y="368" width="14" height="43">
   <properties>
    <property name="Next 1" type="object" value="50"/>
    <property name="Type" value="random"/>
   </properties>
  </object>
 </objectgroup>
 <layer id="3" name="Ground 3" width="25" height="25" offsetx="0" offsety="-32">
  <data encoding="csv">
0,0,0,0,0,0,0,0,0,0,0,0,0,0,0,0,0,0,0,0,0,0,0,0,0,
0,0,0,0,0,0,0,0,0,0,0,0,0,0,0,0,0,0,0,0,0,0,0,0,0,
0,0,0,0,0,0,0,0,0,0,0,0,0,0,0,0,0,0,0,0,0,0,0,0,0,
0,0,0,0,0,0,0,0,0,0,0,0,0,0,0,0,0,0,0,0,0,0,0,0,0,
0,0,0,0,0,0,0,0,0,0,0,0,0,0,0,0,0,0,0,0,0,0,0,0,0,
0,0,0,0,0,0,0,0,0,0,0,0,0,0,0,0,0,0,0,0,0,0,0,0,0,
0,0,0,0,0,0,0,0,0,0,0,0,0,0,0,0,0,0,0,0,0,0,0,0,0,
0,0,0,0,0,0,0,205,0,0,0,0,0,0,0,0,0,0,0,0,0,0,0,0,0,
0,0,0,0,0,0,0,218,0,0,0,0,0,0,261,261,261,0,0,0,0,0,0,0,0,
0,0,0,0,0,0,0,208,0,0,0,0,0,261,261,261,261,0,0,0,0,0,0,0,0,
0,0,0,0,0,0,0,218,199,209,219,185,231,262,261,261,274,0,0,0,0,0,0,0,0,
0,0,0,0,0,0,0,218,0,0,0,0,0,261,261,262,262,0,0,0,0,0,0,0,0,
0,0,261,261,262,0,0,208,0,0,0,0,0,0,261,262,262,0,0,0,0,0,0,0,0,
0,261,261,262,262,0,0,194,0,0,0,0,0,0,0,0,0,0,0,0,0,0,0,0,0,
0,261,261,261,261,231,219,232,0,0,0,0,0,0,0,0,0,0,0,0,0,0,0,0,0,
0,261,262,261,261,0,0,205,0,0,0,0,0,0,0,0,0,0,0,0,0,0,0,0,0,
0,0,261,2147483922,261,0,0,208,0,0,0,0,0,0,0,0,0,0,0,0,0,0,0,0,0,
0,0,0,0,0,0,0,208,0,0,0,0,0,0,261,262,262,0,0,0,0,0,0,0,0,
0,0,0,0,0,0,0,218,0,0,0,0,0,261,262,261,262,0,0,0,0,0,0,0,0,
0,0,0,0,0,0,0,208,199,209,209,185,231,261,262,261,261,0,0,0,0,0,0,0,0,
0,0,0,0,0,0,0,218,0,0,0,0,0,261,261,261,261,0,0,0,0,0,0,0,0,
0,0,0,0,0,0,0,208,0,0,0,0,0,0,261,262,262,0,0,0,0,0,0,0,0,
0,0,0,0,0,0,0,194,0,0,0,0,0,0,0,0,0,0,0,0,0,0,0,0,0,
0,0,0,0,0,0,0,0,0,0,0,0,0,0,0,0,0,0,0,0,0,0,0,0,0,
0,0,0,0,0,0,0,0,0,0,0,0,0,0,0,0,0,0,0,0,0,0,0,0,0
</data>
 </layer>
 <objectgroup id="4" name="Ground 3" offsetx="0" offsety="-32">
  <object id="26" name="JunkPile" gid="306" x="160" y="464" width="64" height="64">
   <properties>
    <property name="Interact Relay" type="object" value="22"/>
   </properties>
  </object>
  <object id="30" name="JunkPile" gid="306" x="392" y="336" width="64" height="64">
   <properties>
    <property name="Interact Relay" type="object" value="22"/>
   </properties>
  </object>
  <object id="29" name="JunkPile" gid="306" x="504" y="632" width="64" height="64">
   <properties>
    <property name="Interact Relay" type="object" value="22"/>
   </properties>
  </object>
  <object id="51" type="Mystery Datum" gid="308" x="240" y="240" width="14" height="43">
   <properties>
    <property name="Next 1" type="object" value="50"/>
    <property name="Type" value="random"/>
   </properties>
  </object>
  <object id="52" type="Mystery Datum" gid="308" x="240" y="720" width="14" height="43">
   <properties>
    <property name="Next 1" type="object" value="50"/>
    <property name="Type" value="random"/>
   </properties>
  </object>
 </objectgroup>
</map>
