<?xml version="1.0" encoding="UTF-8"?>
<map version="1.10" tiledversion="1.12.2" orientation="isometric" renderorder="right-down" width="10" height="10" tilewidth="64" tileheight="32" infinite="0" nextlayerid="8" nextobjectid="54">
 <properties>
  <property name="Background" value="custom"/>
  <property name="Background Animation" value="/server/assets/bg/04-greennohp.animation"/>
  <property name="Background Texture" value="/server/assets/bg/04-greennohp.png"/>
  <property name="Background Vel X" type="float" value="0.19999999999999996"/>
  <property name="Background Vel Y" type="float" value="0.1"/>
  <property name="Forced Base HP" type="int" value="300"/>
  <property name="Honor HPMem" type="bool" value="true"/>
  <property name="Name" value="Forest_ChatR"/>
  <property name="Song" value="/server/assets/exe45-woodman.ogg"/>
 </properties>
 <tileset firstgid="1" source="../assets/central_platform.tsx"/>
 <tileset firstgid="241" source="../assets/Custom_Central_Tiles.tsx"/>
 <tileset firstgid="249" source="../assets/tree.tsx"/>
 <tileset firstgid="257" source="../assets/rainbow_floor.tsx"/>
 <tileset firstgid="273" source="../assets/BBS.tsx"/>
 <tileset firstgid="274" source="../assets/EXE6_Shortcuts.tsx"/>
 <tileset firstgid="306" source="../assets/warp.tsx"/>
 <tileset firstgid="312" source="../assets/cloud.tsx"/>
 <tileset firstgid="324" source="../assets/central_arrows.tsx"/>
 <tileset firstgid="328" source="../assets/ezlibs-assets/ezmystery/BlueMysteryData.tsx"/>
 <tileset firstgid="336" source="../assets/Roadblock.tsx"/>
 <tileset firstgid="338" source="../assets/bn6_securitycube.tsx"/>
 <layer id="1" name="Ground" width="10" height="10">
  <data encoding="csv">
0,0,312,0,0,0,0,0,0,0,
0,267,0,0,267,0,0,267,312,0,
0,0,0,0,0,0,0,0,0,0,
0,0,0,182,183,193,0,0,0,0,
0,267,0,181,192,203,213,219,209,185,
312,0,0,191,201,202,0,0,312,0,
0,0,0,0,0,0,0,0,0,0,
0,267,0,0,267,0,0,267,0,0,
0,0,0,0,0,0,0,0,0,0,
0,0,0,312,0,0,0,0,312,0
</data>
 </layer>
 <objectgroup id="2" name="Ground">
  <object id="1" gid="249" x="240" y="48" width="64" height="64"/>
  <object id="3" gid="249" x="48" y="48" width="64" height="64"/>
  <object id="5" gid="249" x="48" y="240" width="64" height="64"/>
  <object id="7" gid="249" x="240" y="240" width="64" height="64"/>
  <object id="8" name="Forest" type="Board" gid="2147483921" x="93.5" y="48.5" width="40" height="53">
   <properties>
    <property name="BBS" type="bool" value="true"/>
    <property name="Color" type="color" value="#ff55aa00"/>
    <property name="Name" value="Forest_BBS"/>
    <property name="Post Limit" type="int" value="30"/>
   </properties>
  </object>
  <object id="10" name="To default" type="Radius Warp" gid="307" x="288" y="128" width="61" height="32">
   <properties>
    <property name="Activation Radius" type="float" value="0.8"/>
    <property name="Target Area" value="default"/>
    <property name="Target Object" type="object" value="20"/>
    <property name="Warp Out" type="bool" value="true"/>
   </properties>
  </object>
  <object id="11" name="WarpInPoint" x="128" y="128">
   <point/>
  </object>
  <object id="32" name="LookMem" type="NPC" x="160" y="320">
   <properties>
    <property name="Asset Name" value="Blank"/>
    <property name="Dialogue Type" value="first"/>
    <property name="Direction" value="Down"/>
    <property name="Mugshot" value="player"/>
    <property name="Text 1" value="Wonder how we get that?"/>
   </properties>
   <point/>
  </object>
  <object id="35" name="ByeMem" type="NPC" x="184" y="320">
   <properties>
    <property name="Asset Name" value="Blank"/>
    <property name="Delete" type="int" value="33"/>
    <property name="Dialogue Type" value="none"/>
    <property name="Direction" value="Down"/>
    <property name="Event Name" value="remove_object"/>
    <property name="Mugshot" value="player"/>
   </properties>
   <point/>
  </object>
  <object id="33" name="SeeTheMem" gid="338" x="168" y="216" width="48" height="52" visible="0">
   <properties>
    <property name="Delete" type="int" value="0"/>
    <property name="Interact Relay" type="object" value="32"/>
   </properties>
  </object>
  <object id="40" name="BallR" type="SoccerBall" x="128" y="160">
   <properties>
    <property name="Asset Name" value="beyblade"/>
    <property name="Direction" value="Down"/>
   </properties>
   <point/>
  </object>
  <object id="42" name="BallB" type="SoccerBall" x="160" y="128">
   <properties>
    <property name="Asset Name" value="beyblade_b"/>
    <property name="Direction" value="Down"/>
   </properties>
   <point/>
  </object>
  <object id="43" gid="253" x="144" y="48" width="64" height="64"/>
  <object id="44" gid="253" x="48" y="144" width="64" height="64"/>
  <object id="45" gid="253" x="144" y="240" width="64" height="64"/>
  <object id="46" name="SecretAccess" gid="253" x="272" y="208" width="64" height="64" visible="0">
   <properties>
    <property name="Interact Relay" type="object" value="47"/>
   </properties>
  </object>
  <object id="47" name="CheckLvl0" type="NPC" x="312" y="208">
   <properties>
    <property name="Asset Name" value="Blank"/>
    <property name="Dialogue Type" value="itemcheck"/>
    <property name="Direction" value="Down"/>
    <property name="Item 1" type="object" value="48"/>
    <property name="Mugshot" value="Blank"/>
    <property name="Next 1" type="object" value="50"/>
    <property name="Next 2" type="object" value="49"/>
   </properties>
   <point/>
  </object>
  <object id="48" name="Lvl0Key" type="Item" x="312" y="232">
   <properties>
    <property name="Amount" type="int" value="1"/>
    <property name="Description" value="Grants access to Subnet 0"/>
    <property name="Name" value="Lvl0_Key"/>
    <property name="Type" value="keyitem"/>
   </properties>
   <point/>
  </object>
  <object id="49" name="NoKey" type="Dialogue" x="344" y="224">
   <properties>
    <property name="Dialogue Type" value="first"/>
    <property name="Mugshot" value="player"/>
    <property name="Text 1" value="Hm."/>
   </properties>
   <point/>
  </object>
  <object id="50" name="Key" type="Dialogue" x="344" y="200">
   <properties>
    <property name="Dialogue Type" value="first"/>
    <property name="Mugshot" value="player"/>
    <property name="Next 1" type="object" value="51"/>
    <property name="Text 1" value="There seems to be a path here."/>
   </properties>
   <point/>
  </object>
  <object id="51" name="Ask" type="Dialogue" x="360" y="200">
   <properties>
    <property name="Dialogue Type" value="question"/>
    <property name="Next 1" type="object" value="53"/>
    <property name="Next 2" type="object" value="52"/>
    <property name="Text 1" value="Enter?"/>
   </properties>
   <point/>
  </object>
  <object id="52" name="No" type="Dialogue" x="368" y="184">
   <properties>
    <property name="Dialogue Type" value="first"/>
    <property name="Mugshot" value="player"/>
    <property name="Text 1" value="Alright. We'll stay here."/>
   </properties>
   <point/>
  </object>
  <object id="53" name="Yes" type="Dialogue" x="376" y="216">
   <properties>
    <property name="Area" value="SubNet0"/>
    <property name="Dialogue Type" value="none"/>
    <property name="Direction" value="Up Right"/>
    <property name="Event Name" value="move_player"/>
    <property name="X" value="14.5"/>
    <property name="Y" value="12"/>
    <property name="Z" value="0"/>
   </properties>
   <point/>
  </object>
 </objectgroup>
 <layer id="6" name="Ground 2" width="10" height="10" offsetx="0" offsety="-16">
  <data encoding="csv">
0,0,0,0,0,0,0,0,0,0,
0,0,0,0,0,0,0,0,0,0,
0,0,0,0,0,0,0,0,0,0,
0,0,0,0,0,0,0,0,0,0,
0,0,0,0,0,0,0,0,0,0,
0,0,0,0,0,0,0,0,0,0,
0,0,0,0,0,0,0,0,0,0,
0,0,0,0,0,0,0,0,0,0,
0,0,0,0,0,0,0,0,0,0,
0,0,0,0,0,0,0,0,0,0
</data>
 </layer>
 <objectgroup id="4" name="Ground 2" offsetx="0" offsety="-16"/>
 <layer id="7" name="Ground 3" width="10" height="10" offsetx="0" offsety="-32">
  <data encoding="csv">
0,0,0,0,0,0,0,0,0,0,
0,0,0,0,0,0,0,0,0,0,
0,0,0,0,0,0,312,0,0,0,
312,0,0,0,0,0,0,0,0,0,
0,0,0,0,0,0,0,0,0,0,
0,0,0,0,0,0,0,0,0,0,
0,0,0,0,0,2147483966,0,0,0,0,
0,0,0,0,317,316,2147483967,0,0,0,
0,0,0,0,318,315,2147483969,0,0,0,
17,39,39,39,29,39,29,39,5,5
</data>
 </layer>
 <objectgroup id="5" name="Ground 3" offsetx="0" offsety="-32">
  <object id="25" gid="327" x="280" y="264" width="96" height="64"/>
  <object id="26" gid="324" x="-40" y="264" width="96" height="64"/>
  <object id="27" name="T/F default" type="Radius Warp" x="312" y="304">
   <properties>
    <property name="Activation Radius" type="float" value="0.5"/>
    <property name="Arrival Animation" value="arrow_down_right_in"/>
    <property name="Leave Animation" value="arrow_down_right_out"/>
    <property name="Target Area" value="default"/>
    <property name="Target Object" type="object" value="61"/>
   </properties>
   <point/>
  </object>
  <object id="28" name="T/F Dungeon1" type="Radius Warp" x="8" y="304">
   <properties>
    <property name="Activation Radius" type="float" value="0.5"/>
    <property name="Arrival Animation" value="arrow_up_left_in"/>
    <property name="Leave Animation" value="arrow_up_left_out"/>
    <property name="Target Area" value="Dungeon1"/>
    <property name="Target Object" type="object" value="6"/>
   </properties>
   <point/>
  </object>
  <object id="29" name="HPMem" type="Mystery Data" gid="328" x="176" y="240" width="14" height="43">
   <properties>
    <property name="Interact Relay" type="object" value="35"/>
    <property name="Name" value="HPMem"/>
    <property name="Once" type="bool" value="true"/>
    <property name="Type" value="item"/>
   </properties>
  </object>
 </objectgroup>
</map>
